X:1
T:Title
%%score { ( 1 3 4 ) | ( 2 5 ) }
L:1/8
M:4/4
K:Eb
V:1 treble nm="Grand Piano"
V:3 treble 
V:4 treble 
V:2 bass 
V:5 bass 
V:1
 z4 z2[Q:1/4=88] [EG][FA] | [GB][GB][_G=A][=GB] [Ge][Ge][_Ad][Ac] | [GB]>[_G=A] [=GB][_Ac] [GB]4 | %3
 [DFB] [DF]3 [Fd][Ac][GB][FA] | [EG]6 [EG][FA] | [GB][GB][_G=A][=GB] [Ge][Ge][_Ad][Ac] | %6
 [GB]>[_G=A] [=GB][_Ac] [GB]4 | B F3 dcB=A | B4- [DAB]4 | [GB][GB]cd z2 e2 | [Ad]8 | z4 [Ad]2 z2 | %12
 [GB]6 z2 | [GB][GB][_G=A][=GB] [Ge]2 [GB][GB] | cc=Bc [=Af]4 | d d3 dBcd |[M:3/4] [Ge]6 |] %17
V:2
 z4 z2 [E,B,][E,B,] | [E,E][E,E][E,E][E,E] [E,B,][E,B,][E,C][E,D] | [E,E]>[E,E] [E,E][E,E] [E,E]4 | %3
 B,, [B,,B,]3 [B,,B,][B,,B,][B,,B,][B,,B,] | [E,B,]6 [E,B,][E,B,] | %5
 [E,E][E,E][E,E][E,E] [E,B,][E,B,][E,C][E,D] | [E,E]>[E,E] [E,E][E,E] [E,E]4 | %7
 [F,DF] [F,B,D]3 [F,B,F][F,EF][F,DF][F,CE] | B,,4 B,4 | .[E,E]2[K:treble] GG[K:bass] .[E,B,]2 G2 | %10
 [F,B,]B,,D,F, B,4 | [B,DF]FFF[K:bass] .B,,2 A2 | E,E,E,E, E,2 [E,B,E][E,B,] | %13
 [E,E][E,E][E,E][E,E] [E,B,]2 [E,E][E,E] | [A,EA][A,EA][A,EA][A,EA] [F,E]4 | %15
 [B,FA] [B,FA]3 [B,FA][B,DA][B,DA][B,A] |[M:3/4][K:bass] [E,B,]6 |] %17
V:3
 x8 | x8 | x8 | x8 | x8 | x8 | x8 | x8 | [B,D]4 z4 | z4 [Ge]2 z2 | z B,B,B, F4 | AABc .F2 d2 | %12
 EB,G,B, E2 G[FA] | x8 | x8 | x8 |[M:3/4] x6 |] %17
V:4
 x8 | x8 | x8 | x8 | x8 | x8 | x8 | x8 | x8 | z4 z B,3 | x8 | z4 z F3 | x8 | x8 | x8 | x8 | %16
[M:3/4] x6 |] %17
V:5
 x8 | x8 | x8 | x8 | x8 | x8 | x8 | x8 | x8 | z [E,E]3[K:treble][K:bass] z E,3 | x8 | %11
 z [B,D]3[K:bass] z B,,3 | x8 | x8 | x8 | x8 |[M:3/4][K:bass] x6 |] %17

